X: 4407
M: 3/4
L: 1/8
K: G
|:!p!\
[1,3 B6 | d6 | e2d2B2 | A6 :|\
[2,4 e2f2g2 | d2G2c2 | (B4A2) | G2z2z2 \
|:!f!\
eee2e2 | e2d4 | ccc2c2 | c2B4 |\
[1,3 E2F2G2 | A2d2^d2 :|\
[2,4 B2z2A2 | G2z2z2 |]


